X:3
P:Qumdaro
C:Traditional (Kerr's Collection)
M:C
L:1/8
K:G
gf|"G"g2 G4 BG|"D"FADF "G"G2 Bc|"(Em)"dBed "Am"cBAG|"D"FA D4 gf|
 "G"g2 G4 BG|"D"FADF "G"G2 AB|"Am"cedc "D7"BAGF|"G"G2 G2 G2:|
|:dc|"G"BgBc d2 cB|"Am"caAB "D7"c2 BA|"G"Bded cBAG|"D"FA D4 ga|
 "G"bgfg dgfg|bgfg dgfg|"C"edcB "D7"AGFA|"G"G2 G2 G2|]
